inst/assets/svg/wi-snow.svg

<?xml version="1.0" encoding="UTF-8"?>
<svg xmlns="http://www.w3.org/2000/svg" xmlns:xlink="http://www.w3.org/1999/xlink" width="30pt" height="30pt" viewBox="0 0 30 30" version="1.1">
<g id="surface871">
<path style=" stroke:none;fill-rule:nonzero;fill:rgb(0%,0%,0%);fill-opacity:1;" d="M 4.640625 16.949219 C 4.640625 15.789063 4.988281 14.769531 5.699219 13.871094 C 6.410156 12.96875 7.320313 12.390625 8.441406 12.109375 C 8.75 10.75 9.449219 9.628906 10.539063 8.75 C 11.628906 7.871094 12.878906 7.441406 14.289063 7.441406 C 15.671875 7.441406 16.890625 7.871094 17.96875 8.71875 C 19.050781 9.570313 19.75 10.671875 20.070313 12.011719 L 20.390625 12.011719 C 21.28125 12.011719 22.109375 12.230469 22.871094 12.671875 C 23.628906 13.109375 24.238281 13.710938 24.679688 14.46875 C 25.121094 15.230469 25.351563 16.058594 25.351563 16.949219 C 25.351563 18.269531 24.890625 19.421875 23.960938 20.371094 C 23.039063 21.328125 21.910156 21.828125 20.578125 21.871094 C 20.449219 21.871094 20.378906 21.808594 20.378906 21.699219 L 20.378906 20.371094 C 20.378906 20.25 20.449219 20.191406 20.578125 20.191406 C 21.429688 20.148438 22.160156 19.808594 22.761719 19.171875 C 23.359375 18.53125 23.660156 17.789063 23.660156 16.941406 C 23.660156 16.050781 23.339844 15.289063 22.691406 14.640625 C 22.039063 13.988281 21.269531 13.671875 20.371094 13.671875 L 18.761719 13.671875 C 18.640625 13.671875 18.578125 13.609375 18.578125 13.5 L 18.5 12.921875 C 18.390625 11.839844 17.921875 10.929688 17.109375 10.199219 C 16.289063 9.46875 15.351563 9.101563 14.261719 9.101563 C 13.160156 9.101563 12.210938 9.46875 11.398438 10.210938 C 10.589844 10.949219 10.128906 11.859375 10.03125 12.960938 L 9.96875 13.460938 C 9.96875 13.578125 9.898438 13.648438 9.769531 13.648438 L 9.238281 13.71875 C 8.410156 13.789063 7.710938 14.128906 7.140625 14.761719 C 6.570313 15.390625 6.289063 16.109375 6.289063 16.949219 C 6.289063 17.800781 6.589844 18.539063 7.191406 19.179688 C 7.789063 19.820313 8.519531 20.148438 9.371094 20.199219 C 9.480469 20.199219 9.539063 20.261719 9.539063 20.378906 L 9.539063 21.710938 C 9.539063 21.820313 9.480469 21.878906 9.371094 21.878906 C 8.03125 21.839844 6.898438 21.339844 5.96875 20.378906 C 5.101563 19.421875 4.640625 18.269531 4.640625 16.949219 Z M 11 21.019531 C 11 20.800781 11.078125 20.601563 11.238281 20.441406 C 11.398438 20.28125 11.589844 20.199219 11.828125 20.199219 C 12.058594 20.199219 12.261719 20.28125 12.421875 20.441406 C 12.578125 20.601563 12.660156 20.800781 12.660156 21.019531 C 12.660156 21.261719 12.578125 21.460938 12.421875 21.621094 C 12.261719 21.789063 12.070313 21.871094 11.828125 21.871094 C 11.601563 21.871094 11.398438 21.789063 11.238281 21.621094 C 11.078125 21.460938 11 21.261719 11 21.019531 Z M 11 24.648438 C 11 24.410156 11.078125 24.210938 11.238281 24.050781 C 11.398438 23.898438 11.589844 23.820313 11.820313 23.820313 C 12.050781 23.820313 12.25 23.898438 12.410156 24.050781 C 12.570313 24.210938 12.648438 24.398438 12.648438 24.640625 C 12.648438 24.878906 12.570313 25.070313 12.410156 25.230469 C 12.25 25.390625 12.058594 25.460938 11.820313 25.460938 C 11.589844 25.460938 11.390625 25.378906 11.230469 25.230469 C 11.078125 25.078125 11 24.878906 11 24.648438 Z M 14.191406 22.949219 C 14.191406 22.71875 14.269531 22.511719 14.441406 22.328125 C 14.601563 22.171875 14.789063 22.089844 15.011719 22.089844 C 15.238281 22.089844 15.441406 22.179688 15.609375 22.351563 C 15.78125 22.519531 15.871094 22.71875 15.871094 22.949219 C 15.871094 23.179688 15.789063 23.378906 15.621094 23.550781 C 15.449219 23.71875 15.25 23.800781 15.011719 23.800781 C 14.78125 23.800781 14.589844 23.71875 14.429688 23.550781 C 14.269531 23.378906 14.191406 23.179688 14.191406 22.949219 Z M 14.191406 19.328125 C 14.191406 19.101563 14.269531 18.898438 14.441406 18.730469 C 14.621094 18.570313 14.808594 18.488281 15.011719 18.488281 C 15.25 18.488281 15.449219 18.570313 15.621094 18.738281 C 15.789063 18.910156 15.871094 19.101563 15.871094 19.339844 C 15.871094 19.570313 15.789063 19.769531 15.621094 19.929688 C 15.449219 20.089844 15.25 20.171875 15.011719 20.171875 C 14.78125 20.171875 14.589844 20.089844 14.429688 19.929688 C 14.269531 19.761719 14.191406 19.558594 14.191406 19.328125 Z M 14.191406 26.609375 C 14.191406 26.378906 14.269531 26.179688 14.441406 26 C 14.601563 25.839844 14.789063 25.761719 15.011719 25.761719 C 15.25 25.761719 15.449219 25.839844 15.621094 26.011719 C 15.789063 26.179688 15.871094 26.378906 15.871094 26.609375 C 15.871094 26.839844 15.789063 27.039063 15.621094 27.199219 C 15.449219 27.359375 15.25 27.441406 15.011719 27.441406 C 14.78125 27.441406 14.589844 27.359375 14.429688 27.199219 C 14.269531 27.03125 14.191406 26.839844 14.191406 26.609375 Z M 17.410156 21.019531 C 17.410156 20.800781 17.488281 20.609375 17.660156 20.441406 C 17.828125 20.269531 18.03125 20.191406 18.261719 20.191406 C 18.488281 20.191406 18.691406 20.269531 18.851563 20.429688 C 19.011719 20.589844 19.089844 20.789063 19.089844 21.011719 C 19.089844 21.25 19.011719 21.449219 18.851563 21.609375 C 18.691406 21.78125 18.5 21.859375 18.261719 21.859375 C 18.019531 21.859375 17.820313 21.78125 17.660156 21.609375 C 17.5 21.449219 17.410156 21.25 17.410156 21.019531 Z M 17.410156 24.648438 C 17.410156 24.429688 17.488281 24.230469 17.660156 24.050781 C 17.820313 23.898438 18.019531 23.820313 18.261719 23.820313 C 18.5 23.820313 18.691406 23.898438 18.851563 24.050781 C 19.011719 24.199219 19.078125 24.398438 19.078125 24.640625 C 19.078125 24.878906 19 25.070313 18.851563 25.230469 C 18.691406 25.390625 18.5 25.460938 18.261719 25.460938 C 18.019531 25.460938 17.820313 25.378906 17.660156 25.21875 C 17.5 25.070313 17.410156 24.878906 17.410156 24.648438 Z M 17.410156 24.648438 "/>
</g>
</svg>

<?xml version="1.0" encoding="utf-8"?>
<!-- Generator: Adobe Illustrator 22.0.1, SVG Export Plug-In . SVG Version: 6.00 Build 0)  -->
<svg version="1.1" id="Layer_1" xmlns="http://www.w3.org/2000/svg" xmlns:xlink="http://www.w3.org/1999/xlink" x="0px" y="0px"
	 viewBox="0 0 30 30" style="enable-background:new 0 0 30 30;" xml:space="preserve">
<path d="M4.64,16.95c0-1.16,0.35-2.18,1.06-3.08s1.62-1.48,2.74-1.76c0.31-1.36,1.01-2.48,2.1-3.36s2.34-1.31,3.75-1.31
	c1.38,0,2.6,0.43,3.68,1.28c1.08,0.85,1.78,1.95,2.1,3.29h0.32c0.89,0,1.72,0.22,2.48,0.66c0.76,0.44,1.37,1.04,1.81,1.8
	c0.44,0.76,0.67,1.59,0.67,2.48c0,1.32-0.46,2.47-1.39,3.42c-0.92,0.96-2.05,1.46-3.38,1.5c-0.13,0-0.2-0.06-0.2-0.17v-1.33
	c0-0.12,0.07-0.18,0.2-0.18c0.85-0.04,1.58-0.38,2.18-1.02s0.9-1.38,0.9-2.23c0-0.89-0.32-1.65-0.97-2.3s-1.42-0.97-2.32-0.97h-1.61
	c-0.12,0-0.18-0.06-0.18-0.17l-0.08-0.58c-0.11-1.08-0.58-1.99-1.39-2.72c-0.82-0.73-1.76-1.1-2.85-1.1c-1.1,0-2.05,0.37-2.86,1.11
	c-0.81,0.74-1.27,1.65-1.37,2.75l-0.06,0.5c0,0.12-0.07,0.19-0.2,0.19l-0.53,0.07c-0.83,0.07-1.53,0.41-2.1,1.04
	s-0.85,1.35-0.85,2.19c0,0.85,0.3,1.59,0.9,2.23s1.33,0.97,2.18,1.02c0.11,0,0.17,0.06,0.17,0.18v1.33c0,0.11-0.06,0.17-0.17,0.17
	c-1.34-0.04-2.47-0.54-3.4-1.5C5.1,19.42,4.64,18.27,4.64,16.95z M11,21.02c0-0.22,0.08-0.42,0.24-0.58
	c0.16-0.16,0.35-0.24,0.59-0.24c0.23,0,0.43,0.08,0.59,0.24c0.16,0.16,0.24,0.36,0.24,0.58c0,0.24-0.08,0.44-0.24,0.6
	c-0.16,0.17-0.35,0.25-0.59,0.25c-0.23,0-0.43-0.08-0.59-0.25C11.08,21.46,11,21.26,11,21.02z M11,24.65c0-0.24,0.08-0.44,0.24-0.6
	c0.16-0.15,0.35-0.23,0.58-0.23c0.23,0,0.43,0.08,0.59,0.23c0.16,0.16,0.24,0.35,0.24,0.59c0,0.24-0.08,0.43-0.24,0.59
	c-0.16,0.16-0.35,0.23-0.59,0.23c-0.23,0-0.43-0.08-0.59-0.23C11.08,25.08,11,24.88,11,24.65z M14.19,22.95
	c0-0.23,0.08-0.44,0.25-0.62c0.16-0.16,0.35-0.24,0.57-0.24c0.23,0,0.43,0.09,0.6,0.26c0.17,0.17,0.26,0.37,0.26,0.6
	c0,0.23-0.08,0.43-0.25,0.6c-0.17,0.17-0.37,0.25-0.61,0.25c-0.23,0-0.42-0.08-0.58-0.25S14.19,23.18,14.19,22.95z M14.19,19.33
	c0-0.23,0.08-0.43,0.25-0.6c0.18-0.16,0.37-0.24,0.57-0.24c0.24,0,0.44,0.08,0.61,0.25c0.17,0.17,0.25,0.36,0.25,0.6
	c0,0.23-0.08,0.43-0.25,0.59c-0.17,0.16-0.37,0.24-0.61,0.24c-0.23,0-0.42-0.08-0.58-0.24C14.27,19.76,14.19,19.56,14.19,19.33z
	 M14.19,26.61c0-0.23,0.08-0.43,0.25-0.61c0.16-0.16,0.35-0.24,0.57-0.24c0.24,0,0.44,0.08,0.61,0.25c0.17,0.17,0.25,0.37,0.25,0.6
	s-0.08,0.43-0.25,0.59c-0.17,0.16-0.37,0.24-0.61,0.24c-0.23,0-0.42-0.08-0.58-0.24C14.27,27.03,14.19,26.84,14.19,26.61z
	 M17.41,21.02c0-0.22,0.08-0.41,0.25-0.58c0.17-0.17,0.37-0.25,0.6-0.25c0.23,0,0.43,0.08,0.59,0.24c0.16,0.16,0.24,0.36,0.24,0.58
	c0,0.24-0.08,0.44-0.24,0.6c-0.16,0.17-0.35,0.25-0.59,0.25c-0.24,0-0.44-0.08-0.6-0.25C17.5,21.45,17.41,21.25,17.41,21.02z
	 M17.41,24.65c0-0.22,0.08-0.42,0.25-0.6c0.16-0.15,0.36-0.23,0.6-0.23c0.24,0,0.43,0.08,0.59,0.23s0.23,0.35,0.23,0.59
	c0,0.24-0.08,0.43-0.23,0.59c-0.16,0.16-0.35,0.23-0.59,0.23c-0.24,0-0.44-0.08-0.6-0.24C17.5,25.07,17.41,24.88,17.41,24.65z"/>
</svg>
